static/images/endpoint1.svg

<svg height="86" viewBox="0 0 86 86" width="86" xmlns="http://www.w3.org/2000/svg" xmlns:xlink="http://www.w3.org/1999/xlink"><linearGradient id="a" x1="0%" x2="149.460671%" y1="0%" y2="71.875%"><stop offset="0" stop-color="#00eaf8"/><stop offset="1" stop-color="#6d42ef"/></linearGradient><g fill="none" fill-rule="evenodd"><circle cx="43" cy="43" fill="#fff" fill-rule="nonzero" r="43"/><path d="m69.246835 40.9923204c-.6006455-.2236167-1.2700569.0778478-1.4953385.672731l-1.5476511 4.0833038-4.685352-14.2864955c1.6240107-.9406531 2.7181454-2.6858039 2.7181454-4.6802769 0-2.9878954-2.4535238-5.4187344-5.469408-5.4187344-.5082548 0-.9998455.0705333-1.4671783.1995831l-5.8962408-4.3356564c-.5151102-.3787899-1.242424-.2721018-1.6246434.2382459-.3822194.5102432-.2745357 1.2308323.2403637 1.6096223l3.3887168 2.491759h-14.790225c-.5315634-2.440348-2.7258446-4.2749455-5.3455874-4.2749455-2.8267784 0-5.1596457 2.1357486-5.4408259 4.8641859l-6.2415461 3.3459957c-.5640478.302405-.773931 1.0006325-.4687039 1.5594653s1.0099705.7665665 1.5740184.4643704l4.2129565-2.2585287-4.8823679 14.8874393c-.1829886-.0183909-.3687194-.0277954-.5564541-.0277954-3.0159896-.0001045-5.4695134 2.4308391-5.4695134 5.4187345 0 2.3571709 1.5275066 4.3665865 3.6529165 5.1102688l2.4110199 6.7766313c.1682229.4727299.6165713.7683429 1.0952948.7683429.1280393 0 .2585044-.0212123.3860163-.0658311.6048644-.2112865.9224313-.8683434.7091731-1.4676153l-1.3235296-3.71977 11.6722469 8.4020322c-.312188.6810906-.4874774 1.4363717-.4874774 2.2318829 0 2.9878955 2.4535238 5.4187345 5.469408 5.4187345 1.5670574 0 2.9812903-.6574749 3.9793428-1.7072195l7.2654385.4505772c.6818567.0022988 1.1930646-.4667738 1.2316662-1.0764951.0400782-.6341728-.4463445-1.1804663-1.0864355-1.2201739l-4.4890742-.278476 12.6284283-9.0902283c.965779.8482806 2.2346757 1.3647934 3.6237016 1.3647934 3.0157787 0 5.4693025-2.4308391 5.4693025-5.4187345 0-1.0454604-.3012193-2.0223728-.8210757-2.8512176l2.5390592-6.6993059c.2257035-.5944651-.0781525-1.2578962-.6785872-1.4811994zm-7.4841231-14.413373c0 1.7605495-1.4370538 3.1929824-3.2033899 3.1929824-1.766336 0-3.2033898-1.4324329-3.2033898-3.1929824s1.4370538-3.1929825 3.2033898-3.1929825c1.7663361 0 3.2033899 1.432433 3.2033899 3.1929825zm-28.8305622-6.8421053c1.7662583 0 3.2034435 1.432409 3.2034435 3.192929 0 1.7606269-1.4370778 3.1930359-3.2034435 3.1930359s-3.2033361-1.432409-3.2033361-3.1930359c.0001073-1.76052 1.4370778-3.192929 3.2033361-3.192929zm-3.9614033 7.3476612.6723596 3.2172936c.1138347.5441519.6021845.9192417 1.1473985.9191373.0779486 0 .1573879-.0077273.2367208-.0237042.6343437-.1275013 1.0431477-.7351427.9132334-1.3571946l-.5109251-2.445185c.6738504.2877917 1.4167044.4483953 2.1973614.4483953 2.6401348 0 5.1527649-2.0253576 5.6945712-4.4572808h14.2281748l-3.0137653 2.6533617c-.5199765.3785359-.6285933 1.0986416-.2426841 1.6085424.2300122.3039774.5838688.464581.9424109.464581.2427906 0 .4879239-.0737231.6979165-.226495l1.9122954-1.3917588c0 2.9882925 2.4772095 5.4175007 5.5222082 5.4175007.1848616 0 .3675935-.0092937.5477697-.0268369l4.5926823 13.8609909-3.170973-2.3789803c-.5143327-.3857411-1.2501586-.2897758-1.6437349.2145906-.3933634.504262-.2956082 1.2260385.218831 1.611884l1.8144337 1.3612671c-2.2412341.6898229-3.8716581 2.7455075-3.8716581 5.1679282 0 .7818201.1712313 1.5250034.4767428 2.1968654l-12.2036351 8.6946292 1.3490851-3.5536424c.2259656-.5951106-.082847-1.2571567-.6899299-1.4786394-.6065506-.221587-1.2819983.0812417-1.5078574.6764567l-.7363583 1.9396699c-.9975712-1.4129569-2.6612193-2.3410746-4.5425269-2.3410746-1.3889113 0-2.65877.5065593-3.6301454 1.3397559l-12.1334601-8.6449235 4.4161267-.1952723c.6470157-.0286121 1.1476115-.5660808 1.1185406-1.2003502-.0291775-.6344783-.5773731-1.1256874-1.2240693-1.0968664l-2.1829856.0964875c.5481956-.8407151.8674439-1.8381701.8674439-2.9078864 0-1.9882269-1.0990534-3.728552-2.7320331-4.6702448zm-7.0215402 15.4593563c1.7662583 0 3.2033362 1.432433 3.2033362 3.1929825s-1.4369705 3.1929825-3.2033362 3.1929825-3.2034435-1.432433-3.2034435-3.1929825 1.4370778-3.1929825 3.2034435-3.1929825zm17.3898305 24.631579c-1.7662583 0-3.2034435-1.432433-3.2034435-3.1929825 0-1.7605494 1.4370779-3.1929824 3.2034435-3.1929824 1.7663657 0 3.2033362 1.432433 3.2033362 3.1929824 0 1.7605495-1.4370779 3.1929825-3.2033362 3.1929825zm23.7966102-11.8596491c-1.7662583 0-3.2034435-1.432409-3.2034435-3.192929 0-1.760627 1.4370778-3.1930359 3.2034435-3.1930359s3.2033362 1.4324089 3.2033362 3.1930359c-.0001074 1.76052-1.4370779 3.192929-3.2033362 3.192929z" fill="url(#a)"/></g></svg>

<?xml version="1.0" encoding="UTF-8"?>
<svg width="86px" height="86px" viewBox="0 0 86 86" version="1.1" xmlns="http://www.w3.org/2000/svg" xmlns:xlink="http://www.w3.org/1999/xlink">
    <!-- Generator: sketchtool 46.2 (44496) - http://www.bohemiancoding.com/sketch -->
    <title>8322F113-2815-4137-A238-906912B193C8</title>
    <desc>Created with sketchtool.</desc>
    <defs>
        <linearGradient x1="0%" y1="0%" x2="149.460671%" y2="71.875%" id="linearGradient-1">
            <stop stop-color="#00EAF8" offset="0%"></stop>
            <stop stop-color="#6D42EF" offset="100%"></stop>
        </linearGradient>
    </defs>
    <g id="Page-1" stroke="none" stroke-width="1" fill="none" fill-rule="evenodd">
        <g id="icons" transform="translate(-150.000000, -1693.000000)">
            <g transform="translate(63.000000, 1693.000000)" id="1">
                <g>
                    <g id="ic/endpoint" transform="translate(87.000000, 0.000000)">
                        <circle id="Oval" fill="#FFFFFF" fill-rule="nonzero" cx="43" cy="43" r="43"></circle>
                        <path d="M69.246835,40.9923204 C68.6461895,40.7687037 67.9767781,41.0701682 67.7514965,41.6650514 L66.2038454,45.7483552 L61.5184934,31.4618597 C63.1425041,30.5212066 64.2366388,28.7760558 64.2366388,26.7815828 C64.2366388,23.7936874 61.783115,21.3628484 58.7672308,21.3628484 C58.258976,21.3628484 57.7673853,21.4333817 57.3000525,21.5624315 L51.4038117,17.2267751 C50.8887015,16.8479852 50.1613877,16.9546733 49.7791683,17.465021 C49.3969489,17.9752642 49.5046326,18.6958533 50.019532,19.0746433 L53.4082488,21.5664023 L38.6180238,21.5664023 C38.0864604,19.1260543 35.8921792,17.2914568 33.2724364,17.2914568 C30.445658,17.2914568 28.1127907,19.4272054 27.8316105,22.1556427 L21.5900644,25.5016384 C21.0260166,25.8040434 20.8161334,26.5022709 21.1213605,27.0611037 C21.4265876,27.6199365 22.131331,27.8276702 22.6953789,27.5254741 L26.9083354,25.2669454 L22.0259675,40.1543847 C21.8429789,40.1359938 21.6572481,40.1265893 21.4695134,40.1265893 C18.4535238,40.1264848 16,42.5574284 16,45.5453238 C16,47.9024947 17.5275066,49.9119103 19.6529165,50.6555926 L22.0639364,57.4322239 C22.2321593,57.9049538 22.6805077,58.2005668 23.1592312,58.2005668 C23.2872705,58.2005668 23.4177356,58.1793545 23.5452475,58.1347357 C24.1501119,57.9234492 24.4676788,57.2663923 24.2544206,56.6671204 L22.930891,52.9473504 L34.6031379,61.3493826 C34.2909499,62.0304732 34.1156605,62.7857543 34.1156605,63.5812655 C34.1156605,66.569161 36.5691843,69 39.5850685,69 C41.1521259,69 42.5663588,68.3425251 43.5644113,67.2927805 L50.8298498,67.7433577 C51.5117065,67.7456565 52.0229144,67.2765839 52.061516,66.6668626 C52.1015942,66.0326898 51.6151715,65.4863963 50.9750805,65.4466887 L46.4860063,65.1682127 L59.1144346,56.0779844 C60.0802136,56.926265 61.3491103,57.4427778 62.7381362,57.4427778 C65.7539149,57.4427778 68.2074387,55.0119387 68.2074387,52.0240433 C68.2074387,50.9785829 67.9062194,50.0016705 67.386363,49.1728257 L69.9254222,42.4735198 C70.1511257,41.8790547 69.8472697,41.2156236 69.246835,40.9923204 Z M61.7627119,26.5789474 C61.7627119,28.3394969 60.3256581,29.7719298 58.559322,29.7719298 C56.792986,29.7719298 55.3559322,28.3394969 55.3559322,26.5789474 C55.3559322,24.8183979 56.792986,23.3859649 58.559322,23.3859649 C60.3256581,23.3859649 61.7627119,24.8183979 61.7627119,26.5789474 Z M32.9321497,19.7368421 C34.698408,19.7368421 36.1355932,21.1692511 36.1355932,22.9297711 C36.1355932,24.690398 34.6985154,26.122807 32.9321497,26.122807 C31.165784,26.122807 29.7288136,24.690398 29.7288136,22.9297711 C29.7289209,21.1692511 31.1658914,19.7368421 32.9321497,19.7368421 Z M28.9707464,27.0845033 L29.643106,30.3017969 C29.7569407,30.8459488 30.2452905,31.2210386 30.7905045,31.2209342 C30.8684531,31.2209342 30.9478924,31.2132069 31.0272253,31.19723 C31.661569,31.0697287 32.070373,30.4620873 31.9404587,29.8400354 L31.4295336,27.3948504 C32.103384,27.6826421 32.846238,27.8432457 33.626895,27.8432457 C36.2670298,27.8432457 38.7796599,25.8178881 39.3214662,23.3859649 L53.549641,23.3859649 L50.5358757,26.0393266 C50.0158992,26.4178625 49.9072824,27.1379682 50.2931916,27.647869 C50.5232038,27.9518464 50.8770604,28.11245 51.2356025,28.11245 C51.4783931,28.11245 51.7235264,28.0387269 51.933519,27.885955 L53.8458144,26.4941962 C53.8458144,29.4824887 56.3230239,31.9116969 59.3680226,31.9116969 C59.5528842,31.9116969 59.7356161,31.9024032 59.9157923,31.88486 L64.5084746,45.7458509 L61.3375016,43.3668706 C60.8231689,42.9811295 60.087343,43.0770948 59.6937667,43.5814612 C59.3004033,44.0857232 59.3981585,44.8074997 59.9125977,45.1933452 L61.7270314,46.5546123 C59.4857973,47.2444352 57.8553733,49.3001198 57.8553733,51.7225405 C57.8553733,52.5043606 58.0266046,53.2475439 58.3321161,53.9194059 L46.128481,62.6140351 L47.4775661,59.0603927 C47.7035317,58.4652821 47.3947191,57.803236 46.7876362,57.5817533 C46.1810856,57.3601663 45.5056379,57.662995 45.2797788,58.25821 L44.5434205,60.1978799 C43.5458493,58.784923 41.8822012,57.8568053 40.0008936,57.8568053 C38.6119823,57.8568053 37.3421236,58.3633646 36.3707482,59.1965612 L24.2372881,50.5516377 L28.6534148,50.3563654 C29.3004305,50.3277533 29.8010263,49.7902846 29.7719554,49.1560152 C29.7427779,48.5215369 29.1945823,48.0303278 28.5478861,48.0591488 L26.3649005,48.1556363 C26.9130961,47.3149212 27.2323444,46.3174662 27.2323444,45.2477499 C27.2323444,43.259523 26.133291,41.5191979 24.5003113,40.5775051 L28.9707464,27.0845033 Z M21.9492062,42.5438596 C23.7154645,42.5438596 25.1525424,43.9762926 25.1525424,45.7368421 C25.1525424,47.4973916 23.7155719,48.9298246 21.9492062,48.9298246 C20.1828405,48.9298246 18.7457627,47.4973916 18.7457627,45.7368421 C18.7457627,43.9762926 20.1828405,42.5438596 21.9492062,42.5438596 Z M39.3390367,67.1754386 C37.5727784,67.1754386 36.1355932,65.7430056 36.1355932,63.9824561 C36.1355932,62.2219067 37.5726711,60.7894737 39.3390367,60.7894737 C41.1054024,60.7894737 42.5423729,62.2219067 42.5423729,63.9824561 C42.5423729,65.7430056 41.105295,67.1754386 39.3390367,67.1754386 Z M63.1356469,55.3157895 C61.3693886,55.3157895 59.9322034,53.8833805 59.9322034,52.1228605 C59.9322034,50.3622335 61.3692812,48.9298246 63.1356469,48.9298246 C64.9020126,48.9298246 66.3389831,50.3622335 66.3389831,52.1228605 C66.3388757,53.8833805 64.9019052,55.3157895 63.1356469,55.3157895 Z" id="Shape" fill="url(#linearGradient-1)"></path>
                    </g>
                </g>
            </g>
        </g>
    </g>
</svg>
